assets/details.svg

<svg width="49" height="41" viewBox="0 0 49 41" fill="none" xmlns="http://www.w3.org/2000/svg">
<path d="M0 5.83333H8.16667V35H0V5.83333Z" fill="#775ADA"/>
<path d="M8.16668 11.6667H16.3333V40.8333H8.16668V11.6667Z" fill="#775ADA"/>
<path d="M16.3333 11.6667H24.5V35H16.3333L16.3333 11.6667Z" fill="#775ADA"/>
<path d="M24.5 11.6667H32.6667V29.1667H24.5L24.5 11.6667Z" fill="#775ADA"/>
<path d="M32.6667 11.6667H40.8333V40.8333H32.6667L32.6667 11.6667Z" fill="#775ADA"/>
<path d="M40.8333 0H49V23.3333H40.8333V0Z" fill="#775ADA"/>
</svg>

<svg width="49" height="41" fill="none" xmlns="http://www.w3.org/2000/svg"><path d="M0 5.833h8.167V35H0V5.833ZM8.167 11.667h8.166v29.166H8.167V11.667ZM16.333 11.667H24.5V35h-8.167V11.667ZM24.5 11.667h8.167v17.5H24.5v-17.5ZM32.667 11.667h8.166v29.166h-8.166V11.667ZM40.833 0H49v23.333h-8.167V0Z" fill="#775ADA"/></svg>
